img/water-leaks.svg

<svg xmlns="http://www.w3.org/2000/svg" width="92.42" height="101.7"><path d="M13.33 65.92h-3.2a25.67 25.67 0 0 0 25.65 25.65v-3.2a22.49 22.49 0 0 1-22.45-22.45z" fill="#378fdb"/><path d="M36.28 92.07h-.5A26.18 26.18 0 0 1 9.62 65.92v-.5h4.2v.5a22 22 0 0 0 22 22h.5zM10.63 66.42a25.18 25.18 0 0 0 24.65 24.65v-2.2a23 23 0 0 1-22.45-22.45z" fill="#378fdb"/><path d="M91.92 49.86C91.92 35.27 64.63.8 64.63.8s-8.22 10.36-14.82 20.6c-6.56-9.55-14.05-19-14.05-19S.5 47 .5 65.92a35.28 35.28 0 0 0 68.87 10.75 27.34 27.34 0 0 0 22.55-26.81zM35.78 98A32.11 32.11 0 0 1 3.7 65.92c0-15.83 26-50.45 32.07-58.32 6.07 7.87 32.07 42.49 32.07 58.32A32.11 32.11 0 0 1 35.78 98zm34.5-24.77a35.57 35.57 0 0 0 .77-7.31C71.05 55.39 61 38 51.78 24.3c5.06-8 10.47-15.2 12.85-18.3 5.12 6.66 24.07 32.16 24.07 43.88a24.09 24.09 0 0 1-18.42 23.35z" fill="#378fdb"/><path d="M35.78 101.7A35.82 35.82 0 0 1 0 65.92c0-8 6-21.12 17.71-39.13C26.44 13.41 35.28 2.21 35.36 2.1l.39-.5.39.5c.07.09 7.25 9.16 13.65 18.4C56.26 10.56 64.16.6 64.24.49l.39-.49.37.49c1.12 1.41 27.4 34.77 27.4 49.36a27.7 27.7 0 0 1-22.64 27.26 35.69 35.69 0 0 1-33.98 24.59zm0-98.48C31.9 8.17 1 48.45 1 65.92a34.78 34.78 0 0 0 67.9 10.6l.09-.29.3-.05a26.71 26.71 0 0 0 22.13-26.32c0-13.3-23.42-43.95-26.79-48.25-1.71 2.19-8.71 11.22-14.4 20.05l-.41.63-.43-.62c-5.62-8.17-12-16.38-13.63-18.45zm0 95.28A32.61 32.61 0 0 1 3.2 65.92c0-15.69 24.63-48.84 32.18-58.62l.4-.51.4.51c7.55 9.79 32.18 42.93 32.18 58.62A32.61 32.61 0 0 1 35.78 98.5zm0-90.07c-6.14 8-31.58 42.09-31.58 57.5a31.57 31.57 0 1 0 63.15 0c0-15.42-25.43-49.51-31.57-57.51zm33.85 65.48l.16-.77a35.16 35.16 0 0 0 .76-7.21c0-8.34-6.63-22.64-19.18-41.34l-.18-.27.17-.28c4.59-7.24 9.53-14 12.87-18.34l.4-.52.4.52C70.7 13.08 89.2 38.07 89.2 49.88a24.74 24.74 0 0 1-18.8 23.84zM52.38 24.29c8.79 13.13 19.17 30.91 19.17 41.63a36 36 0 0 1-.62 6.63A23.74 23.74 0 0 0 88.2 49.88c0-11.44-18.8-36.8-23.57-43.05-3.27 4.29-7.91 10.64-12.25 17.46z" fill="#378fdb"/></svg>

<svg xmlns="http://www.w3.org/2000/svg" width="92.42" height="101.7" viewBox="0 0 92.42 101.7"><title>water-leaks</title><path d="M13.33,65.92h-3.2A25.67,25.67,0,0,0,35.78,91.57v-3.2A22.49,22.49,0,0,1,13.33,65.92Z" style="fill:#378fdb"/><path d="M36.28,92.07h-.5A26.18,26.18,0,0,1,9.62,65.92v-.5h4.2v.5a22,22,0,0,0,22,22h.5ZM10.63,66.42A25.18,25.18,0,0,0,35.28,91.07v-2.2A23,23,0,0,1,12.83,66.42Z" style="fill:#378fdb"/><path d="M91.92,49.86C91.92,35.27,64.63.8,64.63.8S56.41,11.16,49.81,21.4c-6.56-9.55-14.05-19-14.05-19S.5,47,.5,65.92A35.28,35.28,0,0,0,69.37,76.67,27.34,27.34,0,0,0,91.92,49.86ZM35.78,98A32.11,32.11,0,0,1,3.7,65.92c0-15.83,26-50.45,32.07-58.32,6.07,7.87,32.07,42.49,32.07,58.32A32.11,32.11,0,0,1,35.78,98ZM70.28,73.23a35.57,35.57,0,0,0,.77-7.31C71.05,55.39,61,38,51.78,24.3c5.06-8,10.47-15.2,12.85-18.3C69.75,12.66,88.7,38.16,88.7,49.88A24.09,24.09,0,0,1,70.28,73.23Z" style="fill:#378fdb"/><path d="M35.78,101.7A35.82,35.82,0,0,1,0,65.92c0-8,6-21.12,17.71-39.13C26.44,13.41,35.28,2.21,35.36,2.1l.39-.5.39.5c.07.09,7.25,9.16,13.65,18.4C56.26,10.56,64.16.6,64.24.49L64.63,0,65,.49c1.12,1.41,27.4,34.77,27.4,49.36A27.7,27.7,0,0,1,69.76,77.11,35.69,35.69,0,0,1,35.78,101.7Zm0-98.48C31.9,8.17,1,48.45,1,65.92a34.78,34.78,0,0,0,67.9,10.6l.09-.29.3-.05A26.71,26.71,0,0,0,91.42,49.86C91.42,36.56,68,5.91,64.63,1.61c-1.71,2.19-8.71,11.22-14.4,20.05l-.41.63-.43-.62C43.77,13.5,37.39,5.29,35.76,3.22Zm0,95.28A32.61,32.61,0,0,1,3.2,65.92C3.2,50.23,27.83,17.08,35.38,7.3l.4-.51.4.51c7.55,9.79,32.18,42.93,32.18,58.62A32.61,32.61,0,0,1,35.78,98.5Zm0-90.07c-6.14,8-31.58,42.09-31.58,57.5a31.57,31.57,0,1,0,63.15,0C67.35,50.51,41.92,16.42,35.78,8.42ZM69.63,73.91l.16-.77a35.16,35.16,0,0,0,.76-7.21c0-8.34-6.63-22.64-19.18-41.34l-.18-.27.17-.28c4.59-7.24,9.53-14,12.87-18.34l.4-.52.4.52C70.7,13.08,89.2,38.07,89.2,49.88A24.74,24.74,0,0,1,70.4,73.72ZM52.38,24.29c8.79,13.13,19.17,30.91,19.17,41.63a36,36,0,0,1-.62,6.63A23.74,23.74,0,0,0,88.2,49.88c0-11.44-18.8-36.8-23.57-43.05C61.36,11.12,56.72,17.47,52.38,24.29Z" style="fill:#378fdb"/></svg>
